X:374
T:Iron Legs 
M:4/4 
L:1/8 
K:D
AG | F2 AF E2 AG | FGEF D2 A2 | B2 c2 d2 ed | cdcB A3 G | 
F2 AF E2 AG | FGEF D2 A2 | Bcde fedc | d2 d2 d2 :|| 
G2 | fgfg efef | fgfg efef | dede cdcd | dede cdcd | 
BcBc ABAB | BcBc A3 A | Bcde fedc | d2 d2 d2 :|| 

